X: 2173
T: JOHN HOWATS REEL
C: By H. Dunlop
Q: "Reel."
R: Reel.
%R: reel
B: James Kerr "Merry Melodies" v.2 p.20 #173
Z: 2016 John Chambers <jc:trillian.mit.edu>
M: C
L: 1/8
K: D
ug |\
a2fd g2ec | d2(AG) FDDF |\
E2(FG) ABcd |[1 eAfA gf e :|[2 eABc d2 :|\
A2 |\
defg aAfA | gfed ceAe |
defg aAfA | gba^g a2(af) |\
a^gaf =gfed | eAfA GFED |\
F2AF G2BG | Adce d2d |]
